src/pos-icons/car-clutch.svg

<svg height="24" viewBox="0 0 24 24" width="24" xmlns="http://www.w3.org/2000/svg"><path d="m10 18.84 4 1.86v2.3l-6-3v-6h-3v-4h3v-6l6-3v2.3l-4 1.86zm9-8.84h-4v-4.59l-3 1.39v10.4l3 1.4v-4.6h4z"/></svg>

<?xml version="1.0" encoding="UTF-8"?><!DOCTYPE svg PUBLIC "-//W3C//DTD SVG 1.1//EN" "http://www.w3.org/Graphics/SVG/1.1/DTD/svg11.dtd"><svg xmlns="http://www.w3.org/2000/svg" xmlns:xlink="http://www.w3.org/1999/xlink" version="1.1" id="mdi-car-clutch" width="24" height="24" viewBox="0 0 24 24"><path d="M10 18.84L14 20.7V23L8 20V14H5V10H8V4L14 1V3.3L10 5.16V18.84M19 10H15V5.41L12 6.8V17.2L15 18.6V14H19V10Z" /></svg>
